X: 3196
Q: "Highland Schottische."
M: C
L: 1/8
K: A
[|\
ve<c B>A F>G A2 | e<c B>A (3(def) e2 |\
d<c B>A F>GA>F | E<E F>G A2-Az |\
ve<c B>A F>G A2 | e<c B<A (3(def) e2 |\
d<c B<A F>GA>F | E<E F>G A2-Az |]
[|\
d>cB>A F>GA>F | E<E F>G A2-Az |]


